img/youtube.svg

<svg width="21" height="21" viewBox="0 0 21 21" fill="none" xmlns="http://www.w3.org/2000/svg">
<path d="M10.5 21C16.299 21 21 16.299 21 10.5C21 4.70101 16.299 0 10.5 0C4.70101 0 0 4.70101 0 10.5C0 16.299 4.70101 21 10.5 21Z" fill="#D22215"/>
<path d="M15.7851 6.98657C15.4703 7.08267 15.1419 7.16524 14.8131 7.24747C12.4798 7.74241 9.36866 6.39898 8.02523 8.5909C6.90481 10.3338 6.55105 12.5148 5.27649 14.0732L12.0844 20.8811C16.6154 20.1953 20.1962 16.614 20.8813 12.0828L15.7851 6.98657Z" fill="#A81411"/>
<path d="M14.013 6.24805H6.98706C5.60861 6.24805 4.49118 7.36552 4.49118 8.74393V12.2562C4.49118 13.6346 5.60865 14.7521 6.98706 14.7521H14.013C15.3914 14.7521 16.5088 13.6346 16.5088 12.2562V8.74393C16.5088 7.36552 15.3914 6.24805 14.013 6.24805ZM12.325 10.6709L9.03879 12.2382C8.95118 12.28 8.84999 12.2162 8.84999 12.1192V8.88662C8.84999 8.78819 8.95384 8.72441 9.04154 8.76891L12.3277 10.4342C12.4256 10.4837 12.4238 10.6238 12.325 10.6709Z" fill="white"/>
<path d="M14.0129 6.24805H10.4293V9.47208L12.3278 10.4341C12.4256 10.4836 12.4238 10.6238 12.325 10.6709L10.4293 11.575V14.7521H14.0129C15.3914 14.7521 16.5088 13.6346 16.5088 12.2562V8.74393C16.5088 7.36552 15.3914 6.24805 14.0129 6.24805Z" fill="#D1D1D1"/>
</svg>

<svg xmlns="http://www.w3.org/2000/svg" width="21" height="21" fill="none" xmlns:v="https://vecta.io/nano"><path d="M10.5 21C16.299 21 21 16.299 21 10.5S16.299 0 10.5 0 0 4.701 0 10.5 4.701 21 10.5 21z" fill="#d22215"/><path d="M15.785 6.987l-.972.261c-2.333.495-5.444-.848-6.788 1.343-1.12 1.743-1.474 3.924-2.749 5.482l6.808 6.808a10.51 10.51 0 0 0 8.797-8.798l-5.096-5.096z" fill="#a81411"/><path d="M14.013 6.248H6.987c-1.378 0-2.496 1.117-2.496 2.496v3.512c0 1.378 1.117 2.496 2.496 2.496h7.026c1.378 0 2.496-1.117 2.496-2.496V8.744c0-1.378-1.117-2.496-2.496-2.496zm-1.688 4.423l-3.286 1.567c-.088.042-.189-.022-.189-.119V8.887c0-.098.104-.162.192-.118l3.286 1.665c.098.05.096.19-.003.237z" fill="#fff"/><path d="M14.013 6.248h-3.584v3.224l1.899.962c.098.049.096.19-.003.237l-1.896.904v3.177h3.584c1.379 0 2.496-1.117 2.496-2.496V8.744c0-1.378-1.117-2.496-2.496-2.496z" fill="#d1d1d1"/></svg>
